!!!OTL: Die Vollendung.
!!!OTL-incipit: WENN ICH EINST DAS ZIEL ERRUNGEN HABE
!!!COM: J. Ab. P. Schulz
!!!ARE: Europa, Mitteleuropa, Deutschland
!!!SCT: F1041
!!!TXL: @@DE
!!!YEM: Copyright 1995, estate of Helmut Schaffrath.
**kern	**text
*ICvox	*
*clefG2	*
*M3/4	*
*k[b-e-a-]	*
*E-:	*
!LO:TX:a:t=Langſam.	!
!LO:TX:a:t=P:only the highest voice encoded:problem	!
{16b-/L	1._Wenn
16ccJ	.
16a-L	ich
16fJ	.
=1	=1
8e-	einſt
8e-	das
8g	Ʒiel
8b-/	er-
8ee-	-run-
16ddL	-gen
16ccJ	.
=2	=2
8.b-\L	ha-
16a-J	.
8a-\	-be
8r}	.
{8a-	in
8g	den
=3	=3
8f	Licht-
8g	-ge-
8a-	-fil-
8b-/	-den
16ddqq	.
8cc/	je-
16b-/L	-ner
16a-J	.
=4	=4
8a-qq	.
4g}	Welt,
{4.ee-/	Heil
16dd/L	der
16ccJ	.
=5	=5
8.b-/	Thräne
16an	.
8a	dann
8a	an
16a/L	mei-
16ccJ	.
16ccL	-nem
16ee-J	.
=6	=6
8.dd/L	Gra-
16a-J	.
4a-}	-be,
{8g	die
8g	auf
=7	=7
16fL	hin-
16ccJ	.
16a-L	-ge-
16fJ	.
16e-L	-ſtreu-
16gJ	.
16gL	-te
16b-J	.
16a-L	Roſen
16fJ	.
8d	.
=8	=8
16dq	.
4e-	fällt.
4r}	.
==	==
!!!AGN: Trost - Lied
!!!ONB: ESAC (Essen Associative Code) Database: FINK
!!!AMT: simple triple
!!!AIN: vox
!!!EED: Helmut Schaffrath
!!!EEV: 1.0
!!!RDF**kern: > = above
!!!GTL: Trauer- Begraebniss- und Trostlieder
!!!URL-scan: https://www.digitale-sammlungen.de/en/view/bsb11144622?page=658
!!!ENC: Anna Maria Matuszewska
!!!EEV: 2024/09/08
*-	*-
